flaticon/army-badges/medal-31.svg

<svg xmlns="http://www.w3.org/2000/svg" width="32" height="32" viewBox="0 0 24 24">
    <path d="M 8.398438 18.800781 C 8.398438 19.039062 8.558594 19.199219 8.800781 19.199219 C 9.039062 19.199219 9.199219 19.039062 9.199219 18.800781 C 9.199219 17.238281 10.441406 16 12 16 C 12.238281 16 12.398438 15.839844 12.398438 15.601562 C 12.398438 15.359375 12.238281 15.199219 12 15.199219 C 10 15.199219 8.398438 16.800781 8.398438 18.800781 Z M 8.398438 18.800781"/>
    <path d="M 18.519531 7.519531 L 16.160156 0.800781 C 16 0.320312 15.558594 0 15.039062 0 L 8.800781 0 C 8.398438 0 8.039062 0.199219 7.839844 0.519531 C 7.710938 0.695312 7.636719 0.890625 7.621094 1.101562 L 5.480469 7.558594 C 5.28125 8.160156 5.601562 8.839844 6.199219 9.078125 L 7.757812 9.65625 C 7.773438 9.664062 7.785156 9.671875 7.800781 9.679688 L 9.09375 10.148438 L 9.25 10.207031 C 9.28125 10.21875 9.304688 10.226562 9.324219 10.234375 L 11.601562 11.070312 L 11.601562 11.25 C 10.910156 11.429688 10.398438 12.058594 10.398438 12.800781 C 10.398438 13.160156 10.519531 13.488281 10.71875 13.757812 C 8.460938 14.324219 6.800781 16.363281 6.800781 18.800781 C 6.800781 21.679688 9.121094 24 12 24 C 14.878906 24 17.199219 21.679688 17.199219 18.800781 C 17.199219 16.363281 15.539062 14.324219 13.28125 13.757812 C 13.480469 13.488281 13.601562 13.160156 13.601562 12.800781 C 13.601562 12.058594 13.089844 11.429688 12.398438 11.25 L 12.398438 11.109375 L 17.800781 9.039062 C 18.398438 8.800781 18.71875 8.121094 18.519531 7.519531 Z M 12.519531 0.800781 L 15.480469 9.078125 L 14.800781 9.320312 L 11.761719 0.800781 Z M 8.800781 0.800781 L 10.925781 0.800781 L 14.113281 9.613281 L 12.238281 10.320312 L 8.441406 1.359375 C 8.417969 1.328125 8.40625 1.292969 8.398438 1.253906 C 8.398438 1.234375 8.398438 1.214844 8.398438 1.199219 C 8.398438 1.191406 8.398438 1.183594 8.398438 1.171875 C 8.40625 1.105469 8.4375 1.042969 8.480469 1 C 8.558594 0.878906 8.679688 0.800781 8.800781 0.800781 Z M 6.238281 7.800781 L 8 2.441406 L 9.097656 5.011719 L 7.734375 8.789062 L 6.480469 8.320312 C 6.28125 8.238281 6.160156 8 6.238281 7.800781 Z M 8.933594 9.238281 L 8.484375 9.070312 L 9.558594 6.121094 L 9.960938 7.078125 L 9.160156 9.320312 Z M 9.875 9.59375 L 10.414062 8.089844 L 11.28125 10.121094 Z M 16.398438 18.800781 C 16.398438 21.238281 14.441406 23.199219 12 23.199219 C 9.558594 23.199219 7.601562 21.199219 7.601562 18.800781 C 7.601562 16.398438 9.558594 14.398438 12 14.398438 C 14.441406 14.398438 16.398438 16.359375 16.398438 18.800781 Z M 12.800781 12.800781 C 12.800781 13.238281 12.441406 13.601562 12 13.601562 C 11.558594 13.601562 11.199219 13.238281 11.199219 12.800781 C 11.199219 12.503906 11.363281 12.246094 11.601562 12.109375 L 11.601562 12.398438 C 11.601562 12.640625 11.761719 12.800781 12 12.800781 C 12.238281 12.800781 12.398438 12.640625 12.398438 12.398438 L 12.398438 12.109375 C 12.636719 12.246094 12.800781 12.503906 12.800781 12.800781 Z M 17.558594 8.320312 L 16.238281 8.816406 L 13.347656 0.800781 L 15.039062 0.800781 C 15.199219 0.800781 15.359375 0.921875 15.398438 1.078125 L 17.800781 7.800781 C 17.878906 8 17.761719 8.238281 17.558594 8.320312 Z M 17.558594 8.320312"/>
</svg>

<svg xmlns="http://www.w3.org/2000/svg" width="32" height="32" viewBox="0 0 24 24">
    <path d="M8.398 18.8c0 .24.16.4.403.4.238 0 .398-.16.398-.4C9.2 17.239 10.441 16 12 16c.238 0 .398-.16.398-.398 0-.243-.16-.403-.398-.403-2 0-3.602 1.602-3.602 3.602zm0 0"/>
    <path d="M18.52 7.52L16.16.8C16 .32 15.56 0 15.04 0H8.8c-.402 0-.76.2-.96.52a1.11 1.11 0 0 0-.219.582l-2.14 6.457a1.24 1.24 0 0 0 .718 1.52l1.559.577.043.024 1.293.468.156.059.074.027 2.278.836v.18a1.608 1.608 0 0 0-1.204 1.55c0 .36.122.688.32.958A5.187 5.187 0 0 0 6.802 18.8 5.19 5.19 0 0 0 12 24a5.19 5.19 0 0 0 5.2-5.2 5.187 5.187 0 0 0-3.919-5.042c.2-.27.32-.598.32-.957 0-.742-.511-1.371-1.203-1.551v-.14l5.403-2.07a1.24 1.24 0 0 0 .719-1.52zm-6-6.72l2.96 8.278-.68.242L11.763.8zM8.8.8h2.126l3.187 8.813-1.875.707-3.797-8.96a.251.251 0 0 1-.043-.106v-.055-.027A.297.297 0 0 1 8.48 1c.079-.121.2-.2.32-.2zm-2.562 7L8 2.442l1.098 2.57L7.734 8.79 6.48 8.32c-.199-.082-.32-.32-.242-.52zm2.696 1.438l-.45-.168L9.56 6.121l.402.957-.8 2.242zm.941.356l.54-1.504.866 2.031zm6.523 9.207A4.385 4.385 0 0 1 12 23.199c-2.441 0-4.398-2-4.398-4.398 0-2.403 1.957-4.403 4.398-4.403a4.386 4.386 0 0 1 4.398 4.403zm-3.597-6c0 .437-.36.8-.801.8a.798.798 0 1 1-.398-1.492v.29c0 .242.16.402.398.402.238 0 .398-.16.398-.403v-.289a.798.798 0 0 1 .403.692zm4.758-4.48l-1.32.495L13.347.801h1.691c.16 0 .32.12.36.277L17.8 7.801c.078.199-.04.437-.242.52zm0 0"/>
</svg>
